X:10
T: Ellen Wynne's
C: Martin Wynne
Z: B.Black
R: reel
M: 4/4
L: 1/8
K: G
dc|BGAG EDB,E|DEGB AEGF|EB,DB, G,A,B,D|EAAB c2 dc |
BGAG EDB,E|DEGB AEGF|EB,DB, G,A,B,D |1 EAAc BG :|2\
EAAc BGGA ||
BcdB c2 dc|BGDG EAAc|BddB dega|bgag fgaf|
bg (3gfg aegf|eBdB GABd|eBdB cBAG |1 EGAc BGGA :|2\
EGAc BG G2 ||
